build/svg/svx/res/directionsoutheast_22.svg

<?xml version="1.0" encoding="UTF-8" standalone="no"?>
<svg
   xmlns:dc="http://purl.org/dc/elements/1.1/"
   xmlns:cc="http://creativecommons.org/ns#"
   xmlns:rdf="http://www.w3.org/1999/02/22-rdf-syntax-ns#"
   xmlns:svg="http://www.w3.org/2000/svg"
   xmlns="http://www.w3.org/2000/svg"
   xmlns:sodipodi="http://sodipodi.sourceforge.net/DTD/sodipodi-0.dtd"
   xmlns:inkscape="http://www.inkscape.org/namespaces/inkscape"
   viewBox="0 0 22 22"
   version="1.1"
   id="svg4"
   sodipodi:docname="directionsoutheast_22.svg"
   inkscape:export-filename="/home/jupiter007/Libreoffice yaru theme fullcolor/build/cmd/lc_window3d.png"
   inkscape:export-xdpi="96"
   inkscape:export-ydpi="96"
   inkscape:version="0.92.5 (2060ec1f9f, 2020-04-08)"
   width="22"
   height="22">
  <metadata
     id="metadata10">
    <rdf:RDF>
      <cc:Work
         rdf:about="">
        <dc:format>image/svg+xml</dc:format>
        <dc:type
           rdf:resource="http://purl.org/dc/dcmitype/StillImage" />
        <dc:title />
      </cc:Work>
    </rdf:RDF>
  </metadata>
  <defs
     id="defs8" />
  <sodipodi:namedview
     pagecolor="#ffffff"
     bordercolor="#666666"
     borderopacity="1"
     objecttolerance="10"
     gridtolerance="10"
     guidetolerance="10"
     inkscape:pageopacity="0"
     inkscape:pageshadow="2"
     inkscape:window-width="1920"
     inkscape:window-height="1011"
     id="namedview6"
     showgrid="true"
     inkscape:zoom="22.627417"
     inkscape:cx="1.8425174"
     inkscape:cy="13.645844"
     inkscape:window-x="0"
     inkscape:window-y="32"
     inkscape:window-maximized="1"
     inkscape:current-layer="svg4">
    <inkscape:grid
       type="xygrid"
       id="grid815" />
    <inkscape:grid
       type="xygrid"
       id="grid1030"
       spacingx="0.5"
       spacingy="0.5"
       dotted="true" />
  </sodipodi:namedview>
  <path
     style="color:#000000;font-style:normal;font-variant:normal;font-weight:normal;font-stretch:normal;font-size:medium;line-height:normal;font-family:sans-serif;font-variant-ligatures:normal;font-variant-position:normal;font-variant-caps:normal;font-variant-numeric:normal;font-variant-alternates:normal;font-feature-settings:normal;text-indent:0;text-align:start;text-decoration:none;text-decoration-line:none;text-decoration-style:solid;text-decoration-color:#000000;letter-spacing:normal;word-spacing:normal;text-transform:none;writing-mode:lr-tb;direction:ltr;text-orientation:mixed;dominant-baseline:auto;baseline-shift:baseline;text-anchor:start;white-space:normal;shape-padding:0;clip-rule:nonzero;display:inline;overflow:visible;visibility:visible;opacity:1;isolation:auto;mix-blend-mode:normal;color-interpolation:sRGB;color-interpolation-filters:linearRGB;solid-color:#000000;solid-opacity:1;vector-effect:none;fill:#1463a5;fill-opacity:1;fill-rule:evenodd;stroke:none;stroke-width:2;stroke-linecap:butt;stroke-linejoin:round;stroke-miterlimit:4;stroke-dasharray:none;stroke-dashoffset:0;stroke-opacity:1;color-rendering:auto;image-rendering:auto;shape-rendering:auto;text-rendering:auto;enable-background:accumulate"
     d="m 1,2 v 6 c -3.67e-5,0.1552539 0.036073,0.3083845 0.1054688,0.4472656 l 6,12.0000004 C 7.282165,20.799965 7.6334963,21.000796 8,20.999631 L 20,21 c 0.552262,-5.5e-5 0.999945,-0.447738 1,-1 V 8 C 20.998555,7.6366124 20.796812,7.2813265 20.447266,7.1054688 l -12.0000004,-6 C 8.3083845,1.0360727 8.1552539,0.9999633 8,1 H 2 C 1.5,1 1,1.5 1,2 Z M 5.4140625,3 H 7.7636719 L 15.763672,7 H 9.4140625 Z M 3,5.4140625 l 4,4 V 15.763672 L 3,7.7636719 Z M 10,10 h 9 v 9 h -9 z"
     id="rect1021"
     inkscape:connector-curvature="0"
     sodipodi:nodetypes="cccccccccccccccccccccccccccc" />
  <rect
     style="opacity:1;fill:#ffffff;fill-opacity:1;fill-rule:evenodd;stroke:none;stroke-width:1;stroke-linecap:butt;stroke-linejoin:round;stroke-miterlimit:4;stroke-dasharray:none;stroke-opacity:1"
     id="rect841"
     width="11"
     height="11"
     x="9"
     y="9"
     transform="matrix(0,1,1,0,0,0)" />
  <path
     style="fill:#b6b6b6;fill-opacity:1;stroke:none;stroke-width:1px;stroke-linecap:butt;stroke-linejoin:miter;stroke-opacity:1"
     d="M 2,2.75 V 8 L 8,20 V 8.75 Z"
     id="path986"
     inkscape:connector-curvature="0"
     sodipodi:nodetypes="ccccc" />
  <path
     style="fill:#b6b6b6;fill-opacity:1;stroke:none;stroke-width:1px;stroke-linecap:butt;stroke-linejoin:miter;stroke-opacity:1"
     d="m 2.75,2 6,6 H 20 L 8,2 Z"
     id="path1005"
     inkscape:connector-curvature="0"
     sodipodi:nodetypes="ccccc" />
</svg>

<svg xmlns="http://www.w3.org/2000/svg" width="22" height="22"><path style="line-height:normal;font-variant-ligatures:normal;font-variant-position:normal;font-variant-caps:normal;font-variant-numeric:normal;font-variant-alternates:normal;font-feature-settings:normal;text-indent:0;text-align:start;text-decoration-line:none;text-decoration-style:solid;text-decoration-color:#000;text-transform:none;text-orientation:mixed;white-space:normal;shape-padding:0;isolation:auto;mix-blend-mode:normal;solid-color:#000;solid-opacity:1" d="M1 2v6a1 1 0 00.105.447l6 12A.994.994 0 008 21h12a1 1 0 001-1V8a1.008 1.008 0 00-.553-.895l-12-6A1 1 0 008 1H2c-.5 0-1 .5-1 1zm4.414 1h2.35l8 4h-6.35zM3 5.414l4 4v6.35l-4-8zM10 10h9v9h-9z" color="#000" font-weight="400" font-family="sans-serif" overflow="visible" fill="#1463a5" fill-rule="evenodd"/><path fill="#fff" fill-rule="evenodd" d="M9 9v11h11V9z"/><path d="M2 2.75V8l6 12V8.75zM2.75 2l6 6H20L8 2z" fill="#b6b6b6"/></svg>
